X:43
T:Bonniest Lass in all the World, The
M:2/4
L:1/8
B:Thompson's Compleat Collection of 200 Favourite Country Dances, vol. 1 (London, 1757)
Z:Transcribed and edited by Fynnian Titford-Mock, 2007
Z:abc's:AK/Fiddler's Companion
K:Gmin
gdBG|d/d/d d2|bag^f|g/a/b d2|gdBG|d/d/d d2|{cd}edcB|B2 A2:|
|:bfdB|g/g/g g2|fdBG|d/d/d d2|e/d/ c2 e|d^fgc|BgA^f|G/G/G G2:|

